icons/plexis/48/alleyoop.svg

<svg viewBox="0 0 48 48" xmlns="http://www.w3.org/2000/svg" xmlns:xlink="http://www.w3.org/1999/xlink">
  <linearGradient id="a" gradientTransform="matrix(0 -1 1 0 -.0000015 47.999998)" gradientUnits="userSpaceOnUse" x1="1" x2="47">
    <stop offset="0" stop-color="#3d3d3d"/>
    <stop offset="1" stop-color="#474747"/>
  </linearGradient>
  <path d="m47 24c0 22.703-.297 23-23 23-22.703 0-23-.297-23-23 0-22.703.297-23 23-23 22.703 0 23 .297 23 23z" fill="url(#a)"/>
  <path d="m23 10l-3 7-10-1 5.996 6-7 4 8 1-5.996 8 9-3 .996 6 5-5 8 5-3-9 8-1-7-4 5-2-4-1.996 5-9-11 4.996m-4.465 1h2.938c.293 0 .531.238.531.531v7.938c0 .293-.238.531-.531.531h-2.938c-.293 0-.531-.238-.531-.531v-7.938c0-.293.238-.531.531-.531m0 10h2.938c.293 0 .531.238.531.531v2.938c0 .293-.238.531-.531.531h-2.938c-.293 0-.531-.238-.531-.531v-2.938c0-.293.238-.531.531-.531m0 0" opacity=".1" transform="translate(1.004 1)"/>
  <path d="m23 10l-3 7-10-1 5.996 6-7 4 8 1-5.996 8 9-3 .996 6 5-5 8 5-3-9 8-1-7-4 5-2-4-1.996 5-9-11 4.996m-4.465 1h2.938c.293 0 .531.238.531.531v7.938c0 .293-.238.531-.531.531h-2.938c-.293 0-.531-.238-.531-.531v-7.938c0-.293.238-.531.531-.531m0 10h2.938c.293 0 .531.238.531.531v2.938c0 .293-.238.531-.531.531h-2.938c-.293 0-.531-.238-.531-.531v-2.938c0-.293.238-.531.531-.531m0 0" fill="#ffeb45" transform="translate(.004)"/>
</svg>

<svg xmlns="http://www.w3.org/2000/svg" viewBox="0 0 48 48">
 <defs>
  <linearGradient id="linearGradient3764" x1="1" x2="47" gradientUnits="userSpaceOnUse" gradientTransform="matrix(0,-1,1,0,-1.5e-6,47.999998)">
   <stop style="stop-color:#3d3d3d;stop-opacity:1"/>
   <stop offset="1" style="stop-color:#474747;stop-opacity:1"/>
  </linearGradient>
 </defs>
 <g>
  
  
  
 </g>
 <g>
  <path d="m 47,24 C 47,46.703 46.703,47 24,47 1.297,47 1,46.703 1,24 1,1.297 1.297,1 24,1 46.703,1 47,1.297 47,24 z" style="fill:url(#linearGradient3764);fill-opacity:1"/>
 </g>
 <g>
  
 </g>
 <g transform="translate(0.004,0)">
  <g>
   <g transform="translate(1,1)">
    <g style="opacity:0.1">
     <!-- color: #f8523f -->
     <g>
      <path d="m 23,10 -3,7 -10,-1 5.996,6 -7,4 8,1 -5.996,8 9,-3 0.996,6 5,-5 8,5 -3,-9 8,-1 -7,-4 5,-2 -4,-1.996 5,-9 -11,4.996 m -4.465,1 2.938,0 C 25.762,17 26,17.238 26,17.531 l 0,7.938 C 26,25.762 25.762,26 25.469,26 l -2.938,0 C 22.238,26 22,25.762 22,25.469 l 0,-7.938 C 22,17.238 22.238,17 22.531,17 m 0,10 2.938,0 C 25.762,27 26,27.238 26,27.531 l 0,2.938 C 26,30.762 25.762,31 25.469,31 l -2.938,0 C 22.238,31 22,30.762 22,30.469 l 0,-2.938 C 22,27.238 22.238,27 22.531,27 m 0,0" style="fill:#000;fill-opacity:1;stroke:none;fill-rule:nonzero"/>
     </g>
    </g>
   </g>
  </g>
 </g>
 <g transform="translate(0.004,0)">
  <g>
   <!-- color: #f8523f -->
   <g>
    <path d="m 23,10 -3,7 -10,-1 5.996,6 -7,4 8,1 -5.996,8 9,-3 0.996,6 5,-5 8,5 -3,-9 8,-1 -7,-4 5,-2 -4,-1.996 5,-9 -11,4.996 m -4.465,1 2.938,0 C 25.762,17 26,17.238 26,17.531 l 0,7.938 C 26,25.762 25.762,26 25.469,26 l -2.938,0 C 22.238,26 22,25.762 22,25.469 l 0,-7.938 C 22,17.238 22.238,17 22.531,17 m 0,10 2.938,0 C 25.762,27 26,27.238 26,27.531 l 0,2.938 C 26,30.762 25.762,31 25.469,31 l -2.938,0 C 22.238,31 22,30.762 22,30.469 l 0,-2.938 C 22,27.238 22.238,27 22.531,27 m 0,0" style="fill:#ffeb45;fill-opacity:1;stroke:none;fill-rule:nonzero"/>
   </g>
  </g>
 </g>
</svg>
